X: 303
T: Frank Ferrell's No1
R: Jig
K: G
Q: 180
M: 6/8
L: 1/8
B/2c/2|"G"d3 ^cde|dBG D2B/2c/2|d3 Bdg|b3 gab|"Am"a3 efg|"D"f3 f2e|
|1 d2e f2e|d2c A>Bc:|2 dfa c'af|"G"g3 g2||"A"a/2g/2|"D"f2f fed|"A7"ecA A2G|
"D"FAd dcd|"A7"eAA a2a/2g/2|"D"f2f fed|"A7"ecA A2G|"D"FAd "A7"cBc|"D"d3 d2:|]

